flaticon/online-marketing/hosting.svg

<svg xmlns="http://www.w3.org/2000/svg" width="32" height="32" viewBox="0 0 24 24">
    <path d="M2.644531 3.433594C2.523438 3.433594 2.40625 3.484375 2.320312 3.566406 2.234375 3.652344 2.1875 3.769531 2.1875 3.890625 2.1875 4.007812 2.234375 4.128906 2.320312 4.210938 2.40625 4.296875 2.523438 4.34375 2.644531 4.34375 2.761719 4.34375 2.878906 4.296875 2.964844 4.210938 3.050781 4.128906 3.097656 4.007812 3.097656 3.890625 3.097656 3.769531 3.050781 3.652344 2.964844 3.566406 2.878906 3.484375 2.761719 3.433594 2.644531 3.433594zM4.421875 3.566406C4.339844 3.484375 4.222656 3.433594 4.101562 3.433594 3.980469 3.433594 3.863281 3.484375 3.777344 3.566406 3.695312 3.652344 3.644531 3.769531 3.644531 3.890625 3.644531 4.007812 3.695312 4.128906 3.777344 4.210938 3.863281 4.296875 3.980469 4.34375 4.101562 4.34375 4.222656 4.34375 4.339844 4.296875 4.421875 4.210938 4.507812 4.128906 4.558594 4.007812 4.558594 3.890625 4.558594 3.769531 4.507812 3.652344 4.421875 3.566406zM2.644531 11.542969C2.523438 11.542969 2.40625 11.59375 2.320312 11.679688 2.234375 11.761719 2.1875 11.878906 2.1875 12 2.1875 12.121094 2.234375 12.238281 2.320312 12.320312 2.40625 12.40625 2.523438 12.457031 2.644531 12.457031 2.761719 12.457031 2.878906 12.40625 2.964844 12.320312 3.050781 12.238281 3.097656 12.121094 3.097656 12 3.097656 11.878906 3.050781 11.761719 2.964844 11.679688 2.878906 11.59375 2.761719 11.542969 2.644531 11.542969zM4.421875 11.679688C4.339844 11.59375 4.222656 11.542969 4.101562 11.542969 3.980469 11.542969 3.863281 11.59375 3.777344 11.679688 3.695312 11.761719 3.644531 11.878906 3.644531 12 3.644531 12.121094 3.695312 12.238281 3.777344 12.320312 3.863281 12.40625 3.980469 12.457031 4.101562 12.457031 4.222656 12.457031 4.339844 12.40625 4.421875 12.320312 4.507812 12.238281 4.558594 12.121094 4.558594 12 4.558594 11.878906 4.507812 11.761719 4.421875 11.679688zM2.644531 19.65625C2.523438 19.65625 2.40625 19.703125 2.320312 19.789062 2.234375 19.871094 2.1875 19.992188 2.1875 20.109375 2.1875 20.230469 2.234375 20.347656 2.320312 20.433594 2.40625 20.515625 2.523438 20.566406 2.644531 20.566406 2.761719 20.566406 2.878906 20.515625 2.964844 20.433594 3.050781 20.347656 3.097656 20.230469 3.097656 20.109375 3.097656 19.992188 3.050781 19.875 2.964844 19.789062 2.878906 19.703125 2.761719 19.65625 2.644531 19.65625zM4.421875 19.789062C4.339844 19.703125 4.222656 19.65625 4.101562 19.65625 3.980469 19.65625 3.863281 19.703125 3.777344 19.789062 3.695312 19.875 3.644531 19.992188 3.644531 20.109375 3.644531 20.230469 3.695312 20.347656 3.777344 20.433594 3.863281 20.515625 3.980469 20.566406 4.101562 20.566406 4.222656 20.566406 4.339844 20.515625 4.421875 20.433594 4.507812 20.347656 4.558594 20.230469 4.558594 20.109375 4.558594 19.992188 4.507812 19.871094 4.421875 19.789062zM4.421875 19.789062"/>
    <path d="M 23.542969 7.476562 C 23.796875 7.476562 24 7.273438 24 7.019531 L 24 0.757812 C 24 0.507812 23.796875 0.304688 23.542969 0.304688 L 0.457031 0.304688 C 0.203125 0.304688 0 0.507812 0 0.757812 L 0 7.019531 C 0 7.273438 0.203125 7.476562 0.457031 7.476562 L 1.785156 7.476562 L 1.785156 8.414062 L 0.457031 8.414062 C 0.203125 8.414062 0 8.617188 0 8.871094 L 0 15.128906 C 0 15.382812 0.203125 15.585938 0.457031 15.585938 L 1.785156 15.585938 L 1.785156 16.523438 L 0.457031 16.523438 C 0.203125 16.523438 0 16.726562 0 16.980469 L 0 23.242188 C 0 23.492188 0.203125 23.695312 0.457031 23.695312 L 23.542969 23.695312 C 23.796875 23.695312 24 23.492188 24 23.242188 L 24 16.980469 C 24 16.726562 23.796875 16.523438 23.542969 16.523438 L 22.214844 16.523438 L 22.214844 15.585938 L 23.542969 15.585938 C 23.796875 15.585938 24 15.382812 24 15.128906 L 24 8.871094 C 24 8.617188 23.796875 8.414062 23.542969 8.414062 L 22.214844 8.414062 L 22.214844 7.476562 Z M 23.089844 6.5625 L 20.707031 6.5625 L 20.707031 1.214844 L 23.089844 1.214844 Z M 17.425781 6.5625 L 17.425781 1.214844 L 19.796875 1.214844 L 19.796875 6.5625 Z M 0.910156 1.214844 L 16.515625 1.214844 L 16.515625 6.5625 L 0.910156 6.5625 Z M 0.910156 9.324219 L 16.515625 9.324219 L 16.515625 14.675781 L 0.910156 14.675781 Z M 17.425781 14.675781 L 17.425781 9.324219 L 19.796875 9.324219 L 19.796875 14.675781 Z M 0.910156 17.4375 L 16.515625 17.4375 L 16.515625 22.785156 L 0.910156 22.785156 Z M 19.796875 17.4375 L 19.796875 22.785156 L 17.425781 22.785156 L 17.425781 17.4375 Z M 23.089844 22.785156 L 20.707031 22.785156 L 20.707031 17.4375 L 23.089844 17.4375 Z M 21.304688 16.523438 L 2.695312 16.523438 L 2.695312 15.585938 L 21.304688 15.585938 Z M 23.089844 14.675781 L 20.707031 14.675781 L 20.707031 9.324219 L 23.089844 9.324219 Z M 21.304688 8.414062 L 2.695312 8.414062 L 2.695312 7.476562 L 21.304688 7.476562 Z M 21.304688 8.414062"/>
</svg>

<svg xmlns="http://www.w3.org/2000/svg" width="32" height="32" viewBox="0 0 24 24">
    <path d="M2.645 3.434a.475.475 0 0 0-.325.132.458.458 0 0 0 0 .645.458.458 0 0 0 .645 0 .458.458 0 0 0 0-.645.473.473 0 0 0-.32-.132zm0 0M4.422 3.566a.459.459 0 0 0-.645 0 .475.475 0 0 0-.132.325c0 .117.05.238.132.32a.458.458 0 0 0 .782-.32.462.462 0 0 0-.137-.325zm0 0M2.645 11.543a.462.462 0 0 0-.458.457.462.462 0 0 0 .457.457.46.46 0 0 0 .454-.457.46.46 0 0 0-.453-.457zm0 0M4.422 11.68a.446.446 0 0 0-.645 0 .459.459 0 0 0-.132.32.459.459 0 0 0 .457.457c.12 0 .238-.05.32-.137a.446.446 0 0 0 0-.64zm0 0M2.645 19.656a.458.458 0 0 0-.325.133.458.458 0 0 0 0 .645.475.475 0 0 0 .325.132c.117 0 .234-.05.32-.132a.458.458 0 0 0 0-.645.456.456 0 0 0-.32-.133zm0 0M4.422 19.79a.458.458 0 0 0-.645 0 .473.473 0 0 0-.132.32c0 .12.05.238.132.324a.459.459 0 0 0 .781-.324.453.453 0 0 0-.136-.32zm0 0"/>
    <path d="M23.543 7.477A.455.455 0 0 0 24 7.02V.758a.454.454 0 0 0-.457-.453H.457A.454.454 0 0 0 0 .758V7.02c0 .253.203.457.457.457h1.328v.937H.457A.455.455 0 0 0 0 8.871v6.258c0 .254.203.457.457.457h1.328v.937H.457A.455.455 0 0 0 0 16.98v6.262c0 .25.203.453.457.453h23.086a.454.454 0 0 0 .457-.453V16.98a.455.455 0 0 0-.457-.457h-1.328v-.937h1.328a.455.455 0 0 0 .457-.457V8.87a.455.455 0 0 0-.457-.457h-1.328v-.937zm-.453-.915h-2.383V1.215h2.383zm-5.664 0V1.215h2.37v5.348zM.91 1.215h15.606v5.348H.91zm0 8.11h15.606v5.35H.91zm16.516 5.35v-5.35h2.37v5.35zM.91 17.438h15.606v5.348H.91zm18.887 0v5.348h-2.371v-5.348zm3.293 5.348h-2.383v-5.348h2.383zm-1.785-6.262H2.695v-.937h18.61zm1.785-1.847h-2.383V9.324h2.383zm-1.785-6.262H2.695v-.937h18.61zm0 0"/>
</svg>
